X: 42299
T: Wedding Day, The
R: reel
M: 4/4
K: Dmajor
|:D2DE FAA2|BAFD EDB2|D2DE FAA2|BAFD E2A2|
D2DE FAAA|BAFD EDB2|d2dA BAFB|ADGF E4:|
d2de fdBd|c2cd ecAF|G2GA BGFE|FAGF E2D2|
d2de fdBd|c2cd ecAF|G2GA BGFE|ADGF E4|
d2de fdBd|c2cd ecAF|G2GA BGFE|FAGF E2D2|
d2de faaa|bdad g2a2|fagf Bcdf|e4 A4|

